X: 37934
T: Spaghetti Junction
R: reel
M: 4/4
K: Cmajor
|:DE E/E/E ^GE E/E/E|FED(E E)DEF|^GA A/A/A BAdc|BcBA ^GA^G=F|
DE E/E/E ^GE E/E/E|^GE^G(A A)Bcd|e=f f/f/f ^gfed|^cd^c_B A2 A2:|
|:Ad d/d/d _ed=c(^f|^f)_edc d2 d2|Ad d/d/d ^cd^c_B|A_BA^F G2 G2|
^cA A/A/A ^GE E/E/E|=FED(E E)DEF|^GA A/A/A BcBA|^d=cBA B2 B2:|

